<?xml version="1.0" encoding="UTF-8"?>
<map version="1.10" tiledversion="1.12.2" orientation="orthogonal" renderorder="right-down" width="20" height="20" tilewidth="64" tileheight="64" infinite="0" nextlayerid="4" nextobjectid="12">
 <tileset firstgid="1" source="tiles.tsx"/>
 <layer id="1" name="Ground" width="20" height="20">
  <data encoding="csv">
109,111,111,111,111,111,111,111,111,111,111,111,111,111,111,111,111,111,111,110,
138,1,1,1,1,1,1,1,1,1,1,1,1,1,1,1,1,1,1,138,
138,1,1,1,1,1,1,1,1,1,1,1,1,1,1,1,1,1,1,138,
138,1,1,1,1,1,1,1,1,1,1,1,1,1,1,1,1,1,1,138,
138,1,1,1,1,370,371,371,371,371,371,371,371,372,1,1,1,1,1,138,
138,1,1,1,1,397,398,398,398,398,398,398,398,399,1,1,1,1,1,138,
138,1,1,1,1,397,398,398,398,398,398,398,398,399,1,1,1,1,1,138,
138,1,1,1,1,424,425,425,425,425,425,425,425,426,1,1,1,1,1,138,
138,1,1,1,1,1,1,1,1,1,1,1,1,1,1,1,1,1,1,138,
138,1,1,1,1,1,1,1,1,1,1,1,1,1,1,1,1,1,1,138,
138,1,1,1,1,1,1,1,1,1,1,1,1,1,1,1,1,1,1,138,
138,1,1,1,1,1,1,1,1,1,1,1,1,1,1,1,1,1,1,138,
138,1,1,1,151,120,120,120,120,120,120,120,120,120,120,123,1,1,1,138,
138,1,1,1,1,1,1,1,1,147,147,1,1,1,1,1,1,1,1,138,
138,1,1,1,1,1,1,1,1,147,147,1,1,1,1,1,1,1,1,138,
138,1,1,1,1,1,1,1,1,147,147,1,1,1,1,1,1,1,1,138,
138,1,1,1,1,1,1,1,1,147,147,1,1,1,1,1,1,1,1,138,
138,1,1,1,1,1,1,1,1,124,124,1,1,1,1,1,1,1,1,138,
138,1,1,1,1,1,1,1,1,1,1,1,1,1,1,1,1,1,1,138,
136,111,111,111,111,111,111,111,111,111,111,111,111,111,111,111,111,111,111,137
</data>
 </layer>
 <layer id="3" name="Furniture" width="20" height="20">
  <data encoding="csv">
0,0,0,0,0,0,0,0,0,0,0,0,0,0,0,0,0,0,0,0,
0,0,0,0,0,0,0,0,0,0,0,0,0,0,0,0,0,0,0,0,
0,0,0,213,0,0,0,213,0,0,0,0,213,0,0,0,0,213,0,0,
0,0,0,0,0,0,0,0,0,0,0,0,0,0,0,0,0,0,0,0,
0,0,213,210,0,0,0,0,130,130,130,0,0,0,0,0,0,0,0,0,
0,0,0,0,0,0,0,0,0,0,0,0,0,0,0,0,0,0,0,0,
0,0,0,0,0,0,0,480,481,481,481,482,0,0,0,0,0,213,0,0,
0,0,0,0,0,0,0,505,0,505,0,505,0,0,0,0,0,0,0,0,
0,0,0,0,213,0,0,0,0,0,0,0,0,0,0,0,0,0,0,0,
0,0,0,183,0,0,213,0,0,0,0,0,0,213,0,0,183,0,0,0,
0,0,0,0,0,210,0,0,0,0,213,0,0,0,0,0,0,0,0,0,
0,0,0,213,0,0,0,0,0,0,0,0,0,0,0,0,0,0,0,0,
0,0,0,0,0,0,0,0,0,0,0,0,0,0,0,0,0,0,0,0,
0,213,0,0,0,0,0,0,0,0,0,0,0,0,0,0,0,0,0,0,
0,0,0,0,0,0,213,0,0,0,0,0,0,0,0,0,0,0,0,0,
0,0,0,0,0,0,183,0,0,0,0,0,0,0,0,183,0,0,0,0,
0,0,0,0,0,0,0,0,0,0,0,0,213,0,0,0,0,0,0,0,
0,0,0,0,0,0,0,0,0,0,0,0,0,0,0,0,0,0,0,0,
0,0,0,0,210,0,0,0,0,0,0,0,0,0,0,210,0,0,0,0,
0,0,0,0,0,0,0,0,0,0,0,0,0,0,0,0,0,0,0,0
</data>
 </layer>
 <objectgroup id="2" name="Objects">
  <object id="1" name="wall" x="0" y="0" width="1280" height="64"/>
  <object id="2" name="wall" x="0" y="1216" width="1280" height="64"/>
  <object id="3" name="wall" x="0" y="64" width="64" height="1152"/>
  <object id="4" name="wall" x="1216" y="64" width="64" height="1152"/>
  <object id="5" name="wall" x="256.5" y="767.5" width="767.25" height="64.5"/>
  <object id="11" name="wall" x="575.667" y="832.333" width="128" height="319.333"/>
  <object id="10" name="wall" x="319.606" y="257.143" width="577.203" height="255.713" rotation="359.931"/>
  <object id="6" name="player" x="92" y="166" width="64" height="64"/>
  <object id="7" name="zombie" x="1090" y="1092" width="64" height="64"/>
  <object id="8" name="zombie" x="132" y="1092" width="64" height="64"/>
 </objectgroup>
</map>
